X: 2
T: I Buried My Wife And Danced On Her Grave
R: jig
M: 6/8
L: 1/8
K: Dmix
DED F2 G|AdB cAF|~ G3 BAG|FAF GEA|DED F2 G|AdB cAF|GFG BAG|1 AFD D2 E :|2 AFD DFA||d2 e fed|faf gfe|d2 e fed|dcA dcA|d2 e fed|f/g/af gfe|d2 A BAG|1 AFD DFA :|2 AFD D2 E||


Tune 381	Setting 25876

